app/dist/common/images/hartshead-res-nl.svg

<svg height="18" viewBox="0 0 18 18" width="18" xmlns="http://www.w3.org/2000/svg"><path d="m0 0h18v18h-18z" fill="#f0f3fa"/><path d="m9.01 15-6.01-6.05 4-4.15v6.5l1 1.06v-2.86h2v4.5z" fill="#1f4234"/><path d="m8.99 3 6.01 6.05-4 4.11v-6.56l-1-1.07v2.97h-2v-4.4z" fill="#a51b18"/></svg>

<!-- by TradingView --><svg width="18" height="18" viewBox="0 0 18 18" xmlns="http://www.w3.org/2000/svg"><path fill="#F0F3FA" d="M0 0h18v18H0z"/><path d="M9.01 15 3 8.95 7 4.8v6.5l1 1.06V9.5h2V14l-.99 1Z" fill="#1F4234"/><path d="M8.99 3 15 9.05l-4 4.11V6.6l-1-1.07V8.5H8V4.1L8.99 3Z" fill="#A51B18"/></svg>
